icons-common/full-screen.svg

<svg height="1em" width="auto" viewBox="0 0 105 105" fill="currentColor" xmlns="http://www.w3.org/2000/svg">
    <path d="M75.7078 45.9816L75.1458 25.7426L79.4693 30.1329L59.5377 29.5621C57.4624 29.5182 55.8194 27.7182 55.8627 25.6109C55.9059 23.5475 57.5488 21.9231 59.5377 21.8792L79.4693 21.3524C81.8905 21.2646 83.8794 23.2841 83.7929 25.7426L83.2309 45.9816C83.1011 50.8548 75.7943 50.8548 75.6646 45.9816H75.7078Z"
          />
    <path d="M81.415 29.2551C77.9994 33.3381 74.2811 37.1576 70.6061 40.9771C66.8445 44.7088 63.083 48.4844 59.0621 51.9527C57.4624 53.3137 55.0844 53.1381 53.7009 51.4698C52.4903 50.021 52.5335 47.9137 53.7009 46.5088C57.1165 42.4259 60.8348 38.6064 64.5098 34.7869C68.2713 31.0551 72.0328 27.2795 76.0538 23.8112C77.6535 22.4503 80.0314 22.6259 81.415 24.2942C82.6256 25.743 82.5823 27.8503 81.415 29.2551Z"
          />
    <path d="M29.9211 59.6793L30.4831 79.9183L26.1596 75.5281L46.0912 76.0988C48.1665 76.1427 49.8095 77.9427 49.7663 80.05C49.723 82.1134 48.0801 83.7378 46.0912 83.7817L26.1596 84.3086C23.6951 84.3964 21.7063 82.3769 21.7928 79.9183L22.3548 59.6793C22.4845 54.8061 29.7914 54.8061 29.9211 59.6793Z"
          />
    <path d="M24.1706 76.4502C27.5862 72.3673 31.3045 68.5478 34.9795 64.7283C38.7411 60.9966 42.5026 57.2209 46.5235 53.7527C48.1232 52.3917 50.5012 52.5673 51.8847 54.2356C53.0953 55.6844 53.0521 57.7917 51.8847 59.1966C48.4691 63.2795 44.7508 67.099 41.0758 70.9185C37.3143 74.6502 33.5528 78.4258 29.5318 81.8941C27.9321 83.2551 25.5542 83.0795 24.1706 81.4112C22.96 79.9624 23.0033 77.8551 24.1706 76.4502Z"
          />
</svg>

<svg xmlns="http://www.w3.org/2000/svg" width="auto" height="1em" fill="currentColor" viewBox="0 0 105 105">
    <path d="m75.708 45.982-.562-20.24 4.323 4.39-19.931-.57c-2.076-.044-3.719-1.844-3.675-3.951.043-2.064 1.686-3.688 3.675-3.732l19.931-.527c2.422-.087 4.41 1.932 4.324 4.39l-.562 20.24c-.13 4.873-7.437 4.873-7.566 0z"/>
    <path d="M81.415 29.255c-3.416 4.083-7.134 7.903-10.809 11.722-3.761 3.732-7.523 7.507-11.544 10.976-1.6 1.36-3.978 1.185-5.361-.483-1.21-1.449-1.168-3.556 0-4.961 3.416-4.083 7.134-7.903 10.809-11.722 3.761-3.732 7.523-7.507 11.544-10.976 1.6-1.36 3.977-1.185 5.361.483 1.21 1.449 1.167 3.556 0 4.961M29.921 59.68l.562 20.238-4.323-4.39 19.931.57c2.075.045 3.718 1.845 3.675 3.952-.043 2.063-1.686 3.688-3.675 3.732l-19.931.527c-2.465.087-4.454-1.932-4.367-4.39l.562-20.24c.13-4.873 7.436-4.873 7.566 0"/>
    <path d="M24.17 76.45c3.416-4.083 7.134-7.902 10.81-11.722 3.761-3.731 7.523-7.507 11.544-10.975 1.6-1.361 3.977-1.186 5.36.483 1.211 1.448 1.168 3.556 0 4.96-3.415 4.084-7.133 7.903-10.808 11.722-3.762 3.732-7.523 7.508-11.544 10.976-1.6 1.361-3.978 1.185-5.361-.483-1.211-1.449-1.168-3.556 0-4.96"/>
</svg>
